X: 2
T: Maude Miller
R: reel
M: 4/4
L: 1/8
K: Edor
dcAG FADF|E2 cE dEcE|dcAG FDDF|Adde fde^c|
dcAG FADF|E2 cE dEcE|dcAG FDDF|Add^c d2de||
f2df efge|afge afge|f2df efge|afge fdde|
f2df efge|afge afge|afge fded|Add^c d2de||


Tune 65	Setting 24212

